X:1
T:The Adoration, 87.87 D
T:The Adoration, 87.87 D
T:Arranged from Mozart
T:Public Domain Courtesy of the Cyber Hymnal™
C:Arranged from Mozart
Z:Public Domain
Z:Courtesy of the Cyber Hymnal™
%%score ( 1 2 ) 3
L:1/8
Q:1/4=105
M:4/4
K:F
V:1 treble 
V:2 treble 
V:3 bass 
V:1
 [FA]2 [GB]2 [EG]2 [EG]2 | [FA]2 [GB]2 [Ac]2 [FA]2 | [EB]2 [FA]2 [DG]2 (BG) | [CF]2 [CE]2 F4 | %4
 [FA]2 [GB]2 [EG]2 [EG]2 | [FA]2 [GB]2 [Ac]2 [FA]2 | [EB]2 [FA]2 [DG]2 (BG) | [CF]2 [CE]2 F4 | %8
 ([df][ce]) ([Bd][Ac]) [Ac]2 [FA]2 | ([GB][FA]) ([GB][Ac]) [FA]2 [Ac]2 | %10
 ([df][ce]) ([Bd][Ac]) [Ac]2 [FA]2 | ([GB][FA]) ([GB][Ac]) A2 F2 | [FA]2 [GB]2 [EG]2 [EG]2 | %13
 [FA]2 [GB]2 [Ac]2 [FA]2 | [EB]2 [FA]2 [DG]2 (BG) | ([CF]2 [CE]2 F4) |] %16
V:2
 x8 | x8 | x6 D2 | x4 F4 | x8 | x8 | x6 D2 | x4 F4 | x8 | x8 | x8 | x4 F4 | x8 | x8 | x6 D2 | %15
 x4 F4 |] %16
V:3
 [F,,F,]2 [B,,,B,,]2 [C,,C,]2 ([C,C][B,,B,]) | [A,,A,]2 [G,,G,]2 [F,,F,]4 | %2
 [C,,C,]2 [A,,,A,,]2 [B,,,B,,]2 [G,,,G,,]2 | [C,,C,]2 [C,,C,]2 [F,,F,A,]4 | %4
 [F,,F,]2 [B,,,B,,]2 [C,,C,]2 ([C,C][B,,B,]) | [A,,A,]2 [G,,G,]2 [F,,F,]4 | %6
 [C,,C,]2 [A,,,A,,]2 [B,,,B,,]2 [G,,,G,,]2 | [C,,C,]2 [C,,C,]2 [F,,F,A,]4 | [F,,F,]4 [F,,F,]4 | %9
 [B,,,B,,]2 [C,,C,]2 F,4 | [F,,F,]4 [F,,F,]4 | [B,,,B,,]2 [C,,C,]2 [F,,F,]4 | %12
 [F,,F,]2 [B,,,B,,]2 [C,,C,]2 ([C,C][B,,B,]) | [A,,A,]2 [G,,G,]2 [F,,F,]4 | %14
 [C,,C,]2 [A,,,A,,]2 [B,,,B,,]2 [G,,,G,,]2 | ([C,,C,]2 [C,,C,]2 [F,,F,A,]4) |] %16

